X:1
T:James Gibb editions
T:Thou art gone to the grave - Barnby
%%score [ ( 1 2 ) ( 3 4 ) ]
L:1/8
Q:1/4=120
M:4/4
K:Eb
V:1 treble nm="Midi_74"
V:2 treble 
V:3 bass nm="Midi_74"
V:4 bass 
V:1
"^Reginald Heber\n(1783-1826)""^13 11. 13 11""^Thou art gone to the grave""^Joseph Barnby\n(1838-96)" G2 A2 | %1
 B4 e2 d2 | c4 c2 c2 | c4 B2 A2 | A4 G2 || G2 | G4 d2 G2 | G4 e2 c2 | B4 =A3 B | G4 || %10
[M:4/4] (B2 B2) | e4 B2 G2 | G2 F4 G2 | A4 B2 c2 | c2 F2 || G2 F2 | E4 E3 E | E4 E2 F2 | G4 A2 F2 | %19
 E4 || A4 G4 |] %21
V:2
 E2 E2 | E4 E2 E2 | (E2 C2) F2 E2 | E4 D2 B,2 | (C2 D2) E2 || E2 | F4 F2 F2 | E4 E2 E2 | D4 ^F3 F | %9
 G4 ||[M:4/4] (D2 D2) | E4 E2 E2 | E4 E2 E2 | E4 E2 E2 | D2 D2 || D2 D2 | E4 D3 C | B,4 =A,2 A,2 | %18
 (B,2 _D2) =D2 D2 | !fermata!E4 || E4 E4 |] %21
V:3
 B,2 A,2 | G,4 G,2 B,2 | B,4 A,2 A,2 | (A,2 F,2) B,2 D2 | C4 B,2 || C2 | D4 G,2 D2 | C4 G,2 G,2 | %8
 G,4 C3 C | B,4 || %10
[M:4/4]"^1. Thou art gone to the grave, but we will not deplore thee;\nThough sorrows and darkness encompass the tomb;\nThe Saviour has passed through its portals before thee,\nAnd the lamp of his love is thy guide through the gloom,\n\n2. Thou art gone to the grave; we no longer behold thee,\nNor tread the rough paths of the world by thy side;\nBut the wide arms of mercy are spread to enfold thee\nAnd sinners may hope, since the Saviour hath died.\n\n3. Thou art gone to the grave, and thy cradle's forsaken.\nWith us thy fond spirit did not tarry long,\nBut the sunshine of heaven beamed bright on thy waking,\nAnd the sound thou didst hear was the seraphim's song.\n\n4. Thou art gone to the grave, but 'twere wrong to deplore thee,\nWhen God was thy ransom, and guardian, and guide.\nHe gave thee, and took thee, and soon will restore thee,\nWhere death hath no sting, since the Saviour hath died." (B,2 !courtesy!_A,2) | %11
 G,4 G,2 B,2 | C4 C2 B,2 | C4 B,2 A,2 | A,2 A,2 || B,2 A,2 | G,4 B,3 A, | G,4 F,2 E,2 | %18
 (E,2 =E,2) F,2 A,2 | G,4 || C4 B,4 |] %21
V:4
 E,2 F,2 | G,4 E,2 E,2 | A,,4 A,,2 A,,2 | B,,4 B,,2 B,,2 | E,4 E,2 || C,2 | =B,,4 B,,2 B,,2 | %7
 C,4 C,2 C,2 | D,4 D,3 D, | G,4 ||[M:4/4] (G,2 F,2) | E,4 E,2 G,,2 | A,,4 A,2 G,2 | F,4 F,2 F,2 | %14
 B,,2 B,,2 || B,,2 B,,2 | C,4 G,,3 A,, | B,,4 C,2 C,2 | B,,4 B,,2 B,,2 | !fermata!E,4 || %20
 A,,4 E,4 |] %21

